svgs/thin/filter-circle-dollar.svg

<svg xmlns="http://www.w3.org/2000/svg" viewBox="0 0 576 512"><!--! Font Awesome Pro 6.0.0-alpha3 by @fontawesome - https://fontawesome.com License - https://fontawesome.com/license (Commercial License) --><path d="M211.4 374.5C209.3 373 208 370.6 208 368V269.1L19.69 41.97c-5.723-6.902-3.418-13.87-2.16-16.55C20.3 19.52 25.98 16 32.7 16h446.6c6.727 0 12.4 3.523 15.17 9.426c1.258 2.676 3.562 9.645-2.16 16.54l-113.3 136.6c-3.289 3.965-2.027 9.957 2.58 12.26c3.326 1.662 7.361 .8125 9.734-2.049l113.3-136.6C521.1 31.28 506.8 0 479.3 0H32.7C5.209 0-9.965 31.28 7.375 52.19L192 274.8V368c0 7.828 3.812 15.17 10.25 19.66l41.16 28.81C248.7 420.2 256 416.4 256 409.9c0-2.611-1.275-5.059-3.414-6.555L211.4 374.5zM434.2 360.3l-5.781-1.656c-27-7.938-34.47-14.8-31.97-29.38c3.156-18.23 26.56-21.2 45.56-18.22c5.344 .8438 12.03 2.656 20.38 5.547c4.188 1.406 8.75-.7656 10.19-4.938c1.438-4.188-.7813-8.734-4.938-10.19c-9.406-3.25-16.75-5.234-23.16-6.234c-1.549-.2402-2.979-.252-4.49-.4199c0-.0488 .0527-14.8 .0527-14.8c0-4.422-3.594-8-8-8s-8 3.578-8 8v14.36c-23.55 1.584-40.1 13.23-43.34 32.17c-5.719 33.08 24.91 42.06 43.22 47.44l5.875 1.703c28.59 8.172 40.81 13.59 37.78 31.08c-3.156 18.19-26.44 21.17-45.59 18.22c-8.438-1.281-18.28-4.828-27-7.969l-4.281-1.547c-4.312-1.469-8.75 .7031-10.22 4.875c-1.5 4.156 .6875 8.734 4.844 10.22l4.25 1.516c9.375 3.375 20.03 7.219 29.97 8.719c1.596 .248 3.021 .1973 4.574 .3672c-.1035 3.711-.0742 11.14-.0742 14.85c0 4.422 3.594 8 8 8s8-3.578 8-8l-.0029-14.68c0-.0059 0 .0059 0 0c23.3-1.676 40.05-13.02 43.28-31.85C489.1 376 458.7 367.3 434.2 360.3zM432 224C352.5 224 288 288.5 288 368s64.46 144 144 144C511.5 512 576 447.5 576 368S511.5 224 432 224zM432 496C361.4 496 304 438.6 304 368s57.42-128 128-128C502.6 240 560 297.4 560 368S502.6 496 432 496z"/></svg>

<svg xmlns="http://www.w3.org/2000/svg" viewBox="0 0 576 512"><!-- Font Awesome Pro 6.0.0-alpha2 by @fontawesome - https://fontawesome.com License - https://fontawesome.com/license (Commercial License) --><path d="M211.401 374.531C209.27 373.039 208.001 370.602 208.001 368V269.051L204.317 264.609L19.692 41.973C13.969 35.07 16.274 28.102 17.532 25.426C20.305 19.523 25.977 16 32.704 16H479.297C486.024 16 491.696 19.523 494.469 25.426C495.727 28.102 498.032 35.07 492.309 41.971L379.047 178.553C375.758 182.518 377.02 188.51 381.627 190.814C384.954 192.477 388.989 191.627 391.362 188.766L504.626 52.186C521.965 31.275 506.79 0 479.297 0H32.704C5.211 0 -9.964 31.275 7.376 52.186L192.001 274.822V368C192.001 375.828 195.813 383.172 202.251 387.656L243.413 416.463C248.715 420.174 256.001 416.381 256.001 409.908C256.001 407.297 254.725 404.85 252.586 403.354L211.401 374.531ZM434.19 360.281L428.409 358.625C401.409 350.688 393.94 343.828 396.44 329.25C399.596 311.016 423.002 308.047 442.002 311.031C447.346 311.875 454.034 313.688 462.377 316.578C466.565 317.984 471.127 315.812 472.565 311.641C474.002 307.453 471.784 302.906 467.627 301.453C458.221 298.203 450.877 296.219 444.471 295.219C442.922 294.979 441.493 294.967 439.981 294.799C439.981 294.75 440.034 280 440.034 280C440.034 275.578 436.44 272 432.034 272S424.034 275.578 424.034 280V294.363C400.481 295.947 383.936 307.59 380.69 326.531C374.971 359.609 405.596 368.594 423.909 373.969L429.784 375.672C458.377 383.844 470.596 389.266 467.565 406.75C464.409 424.937 441.127 427.922 421.971 424.969C413.534 423.687 403.69 420.141 394.971 417L390.69 415.453C386.377 413.984 381.94 416.156 380.471 420.328C378.971 424.484 381.159 429.062 385.315 430.547L389.565 432.062C398.94 435.438 409.596 439.281 419.534 440.781C421.129 441.029 422.555 440.979 424.108 441.148C424.004 444.859 424.034 452.287 424.034 456C424.034 460.422 427.627 464 432.034 464S440.034 460.422 440.034 456V441.328C440.034 441.322 440.028 441.32 440.028 441.314C463.325 439.639 480.081 428.303 483.315 409.469C489.127 376 458.659 367.281 434.19 360.281ZM432.002 224C352.463 224 288.001 288.463 288.001 368S352.463 512 432.002 512C511.538 512 576.001 447.537 576.001 368S511.538 224 432.002 224ZM432.002 496C361.422 496 304.001 438.58 304.001 368S361.422 240 432.002 240C502.581 240 560.001 297.42 560.001 368S502.581 496 432.002 496Z"/></svg>
